X: 17539
T: Hills Of Tipperary, The
R: reel
M: 4/4
K: Gmajor
(3DEF|:G2 DG BGBd|g2 eg fdcA|BG~G2 FGAF|GBAG FDEF|
G2 DG BGBd|g2 eg fdcA|BG~G2 FGAg|fdcA G4:|
g2 dg bgaf|g2 eg fdcA|BG~G2 AGFD|FGAg fdce|
g2 dg bgaf|g2 eg fdcA|BG~G2 FGAg|fdcA G4||
g2 dg bgaf|g2 eg fdcA|BG~G2 AGFD|FGAg fdcA|
BG~G2 FGAd|g2 eg fgag|bg~g2 egfd|cAFA G4||

